X:1
T:Bullaremarschen
M:C|
L:1/8
S:Vidar Skrede
F: https://www.youtube.com/watch?v=dQSp5xdOaN8
K:E
E2EG B2B2 | BcBA {GA}G2EF/G/ | A2AA cede | BcBA G2FG |
ABcA F2F/A/F/E/ | BcBA G2FG | ABcB AGFE | D>EFE/D/ E4 ::
e3e decB/c/ | B3F Bcde | f3e decB/c/ |
[M:3/2] B3F/G/ ABcA F2{FA}F2 | [M:G,|] BcBA G2FG | ABcB AGFE | D>EFE/D/ E4 :|
